X:16306
T:Tank. JC.157
M:2/4
L:1/8
Q:400
S:John Clare,Poet,Helpstone (1793-1864)
R:Misc.
O:England
A:Northamptonshire
N:
Z:P Headford
K:G
G2g2|E2e2|dedc|BAG2|BcdB|cdec|d2g2g4:|!
|:B2d2|d2cB|eccA|AFFD|B2d2|d2cB|ecAF|G4:|]
